packages/icons/svg/Outline/lock.svg

<svg fill="none" height="24" viewBox="0 0 24 24" width="24" xmlns="http://www.w3.org/2000/svg"><path clip-rule="evenodd" d="m12 16c-.552 0-1-.448-1-1s.448-1 1-1 1 .448 1 1-.448 1-1 1zm0-4.0001c-1.654 0-3.00003 1.346-3.00003 3s1.34603 3 3.00003 3 3-1.346 3-3-1.346-3-3-3zm6 7.0002c0 .552-.448 1-1 1h-10.00003c-.552 0-1-.448-1-1v-8c0-.552.448-1 1-1h1 2 4.00003 2 1c.552 0 1 .448 1 1zm-8-12.88904c0-1.164.897-2.11099 2-2.11099s2 .94699 2 2.11099v1.889h-4zm7 1.88894h-1v-1.889c0-2.266-1.794-4.111-4-4.111s-4 1.845-4 4.111v1.889h-1c-1.654 0-3 1.346-3 3v8c0 1.654 1.346 3 3 3h10c1.654 0 3-1.346 3-3v-8c0-1.654-1.346-3-3-3z" fill="#6b7280" fill-rule="evenodd"/></svg>

<svg width="24" height="24" viewBox="0 0 24 24" fill="none" xmlns="http://www.w3.org/2000/svg">
<g id="Icon/Outline/lock">
<path id="Mask" fill-rule="evenodd" clip-rule="evenodd" d="M12 16C11.448 16 11 15.552 11 15C11 14.448 11.448 14 12 14C12.552 14 13 14.448 13 15C13 15.552 12.552 16 12 16ZM12 12C10.346 12 9 13.346 9 15C9 16.654 10.346 18 12 18C13.654 18 15 16.654 15 15C15 13.346 13.654 12 12 12ZM18 19C18 19.552 17.552 20 17 20H7C6.448 20 6 19.552 6 19V11C6 10.448 6.448 10 7 10H8H10H14H16H17C17.552 10 18 10.448 18 11V19ZM10 6.111C10 4.947 10.897 4 12 4C13.103 4 14 4.947 14 6.111V8H10V6.111ZM17 8H16V6.111C16 3.845 14.206 2 12 2C9.794 2 8 3.845 8 6.111V8H7C5.346 8 4 9.346 4 11V19C4 20.654 5.346 22 7 22H17C18.654 22 20 20.654 20 19V11C20 9.346 18.654 8 17 8Z" fill="#000000"/>
</g>
</svg>
